src/assets/svg/icons/fa/nuevos/classic/duotone/face-laugh-wink classic duotone.svg

<svg xmlns="http://www.w3.org/2000/svg" viewBox="0 0 512 512"><!--! Font Awesome Pro 6.4.0 by @fontawesome - https://fontawesome.com License - https://fontawesome.com/license (Commercial License) Copyright 2023 Fonticons, Inc. --><defs><style>.fa-secondary{opacity:.4}</style></defs><path class="fa-primary" d="M176.4 224a32 32 0 1 0 0-64 32 32 0 1 0 0 64zm124.4-6.4c17.6-23.5 52.8-23.5 70.4 0c5.3 7.1 15.3 8.5 22.4 3.2s8.5-15.3 3.2-22.4c-30.4-40.5-91.2-40.5-121.6 0c-5.3 7.1-3.9 17.1 3.2 22.4s17.1 3.9 22.4-3.2z"/><path class="fa-secondary" d="M256 512A256 256 0 1 0 256 0a256 256 0 1 0 0 512zM96.8 314.1c-3.8-13.7 7.4-26.1 21.6-26.1H393.6c14.2 0 25.5 12.4 21.6 26.1C396.2 382 332.1 432 256 432s-140.2-50-159.2-117.9zM144.4 192a32 32 0 1 1 64 0 32 32 0 1 1 -64 0zm156.4 25.6c-5.3 7.1-15.3 8.5-22.4 3.2s-8.5-15.3-3.2-22.4c30.4-40.5 91.2-40.5 121.6 0c5.3 7.1 3.9 17.1-3.2 22.4s-17.1 3.9-22.4-3.2c-17.6-23.5-52.8-23.5-70.4 0z"/></svg>

<svg xmlns="http://www.w3.org/2000/svg" viewBox="0 0 512 512"><defs><style>.fa-secondary{opacity:.4}</style></defs><path class="fa-primary" d="M144.4 192C144.4 174.3 158.7 160 176.4 160C194 160 208.4 174.3 208.4 192C208.4 209.7 194 224 176.4 224C158.7 224 144.4 209.7 144.4 192zM278.4 220.8C271.3 215.5 269.9 205.5 275.2 198.4C305.6 157.9 366.4 157.9 396.8 198.4C402.1 205.5 400.7 215.5 393.6 220.8C386.5 226.1 376.5 224.7 371.2 217.6C353.6 194.1 318.4 194.1 300.8 217.6C295.5 224.7 285.5 226.1 278.4 220.8z"/><path class="fa-secondary" d="M0 256C0 114.6 114.6 0 256 0C397.4 0 512 114.6 512 256C512 397.4 397.4 512 256 512C114.6 512 0 397.4 0 256zM256 432C332.1 432 396.2 382 415.2 314.1C419.1 300.4 407.8 288 393.6 288H118.4C104.2 288 92.92 300.4 96.76 314.1C115.8 382 179.9 432 256 432V432zM176.4 160C158.7 160 144.4 174.3 144.4 192C144.4 209.7 158.7 224 176.4 224C194 224 208.4 209.7 208.4 192C208.4 174.3 194 160 176.4 160zM300.8 217.6C318.4 194.1 353.6 194.1 371.2 217.6C376.5 224.7 386.5 226.1 393.6 220.8C400.7 215.5 402.1 205.5 396.8 198.4C366.4 157.9 305.6 157.9 275.2 198.4C269.9 205.5 271.3 215.5 278.4 220.8C285.5 226.1 295.5 224.7 300.8 217.6z"/></svg>
